dist/img/svg/ic_cash.svg

<svg width="24" height="24" viewBox="0 0 24 24"   xmlns="http://www.w3.org/2000/svg">
<g clip-path="url(#clip0)">
<path d="M23.4127 8.74183C23.1263 8.47746 22.7517 8.30122 22.3332 8.30122C22.3552 8.30122 22.3772 8.30122 22.3993 8.30122V6.03206C22.3993 5.10678 22.0247 4.26961 21.4079 3.65276C20.791 3.0359 19.9538 2.66138 19.0286 2.66138H4.22396C3.29867 2.66138 2.46151 3.0359 1.84465 3.65276C1.22779 4.26961 0.853271 5.10678 0.853271 6.03206V17.4219C0.853271 18.3472 1.22779 19.1844 1.84465 19.8012C2.46151 20.4181 3.29867 20.7926 4.22396 20.7926H19.0286C19.9538 20.7926 20.791 20.4181 21.4079 19.8012C22.0247 19.1844 22.3993 18.3472 22.3993 17.4219V15.1307C22.3772 15.1307 22.3552 15.1307 22.3332 15.1307C22.7517 15.1307 23.1263 14.9545 23.4127 14.6901C23.677 14.4257 23.8533 14.0292 23.8533 13.6106V9.82133C23.8533 9.40275 23.677 9.02823 23.4127 8.74183ZM21.1876 17.3999C21.1876 17.9947 20.9452 18.5234 20.5487 18.92C20.1521 19.3165 19.6234 19.5589 19.0286 19.5589H4.22396C3.62913 19.5589 3.1004 19.3165 2.70385 18.92C2.30729 18.5234 2.06496 17.9947 2.06496 17.3999V6.03206C2.06496 5.43724 2.30729 4.9085 2.70385 4.51195C3.1004 4.1154 3.62913 3.87306 4.22396 3.87306H19.0286C19.6234 3.87306 20.1521 4.1154 20.5487 4.51195C20.9452 4.9085 21.1876 5.43724 21.1876 6.03206V8.30122H14.3581C13.4328 8.30122 12.6176 8.67574 12.0008 9.27057C11.406 9.86539 11.0314 10.7026 11.0314 11.6278V11.7821C11.0314 12.7073 11.406 13.5225 12.0008 14.1393C12.5956 14.7342 13.4328 15.1087 14.3581 15.1087H21.1876V17.3999ZM22.6416 13.6106C22.6416 13.6987 22.5975 13.7868 22.5535 13.8309C22.4874 13.897 22.4213 13.919 22.3332 13.919H14.3581C13.7853 13.919 13.2345 13.6767 12.86 13.3022C12.4855 12.9277 12.2431 12.3769 12.2431 11.8041V11.6499C12.2431 11.055 12.4855 10.5263 12.86 10.1518C13.2565 9.75524 13.7853 9.53493 14.3581 9.53493H22.3332C22.4213 9.53493 22.5094 9.579 22.5535 9.62306C22.6196 9.68915 22.6416 9.75524 22.6416 9.84336V13.6106Z"  />
<path d="M14.5123 10.7246C14.248 10.7246 14.0056 10.8347 13.8294 11.011C13.6531 11.1872 13.543 11.4296 13.543 11.6939C13.543 11.9583 13.6531 12.2006 13.8294 12.3769C14.0056 12.5531 14.248 12.6633 14.5123 12.6633C14.7767 12.6633 15.019 12.5531 15.2173 12.3769C15.3935 12.2006 15.5037 11.9583 15.5037 11.6719C15.5037 11.4075 15.3935 11.1652 15.2173 10.9669C15.019 10.8347 14.7767 10.7246 14.5123 10.7246Z"  />
</g>
<defs>
<clipPath id="clip0">
<rect width="23" height="23"   transform="translate(0.853271 0.22699)"/>
</clipPath>
</defs>
</svg>

<svg width="24" height="24" viewBox="0 0 24 24" xmlns="http://www.w3.org/2000/svg"><g clip-path="url(#clip0)"><path d="M23.413 8.742a1.593 1.593 0 00-1.08-.44h.066v-2.27a3.35 3.35 0 00-.991-2.38 3.347 3.347 0 00-2.38-.99H4.225c-.925 0-1.762.374-2.38.99a3.347 3.347 0 00-.99 2.38v11.39c0 .925.374 1.762.99 2.38a3.347 3.347 0 002.38.99H19.03a3.35 3.35 0 002.379-.99 3.347 3.347 0 00.991-2.38V15.13h-.066a1.6 1.6 0 001.08-.44c.264-.265.44-.662.44-1.08V9.82c0-.418-.176-.793-.44-1.08zM21.188 17.4a2.13 2.13 0 01-.64 1.52 2.132 2.132 0 01-1.52.639H4.225a2.131 2.131 0 01-1.52-.639 2.131 2.131 0 01-.639-1.52V6.032c0-.595.242-1.123.639-1.52a2.131 2.131 0 011.52-.639H19.03c.594 0 1.123.242 1.52.639.396.397.639.925.639 1.52v2.27h-6.83c-.925 0-1.74.374-2.357.969a3.33 3.33 0 00-.97 2.357v.154c0 .925.375 1.74.97 2.357a3.33 3.33 0 002.357.97h6.83v2.29zm1.454-3.79a.337.337 0 01-.088.22.283.283 0 01-.22.089h-7.976a2.153 2.153 0 01-1.498-.617 2.153 2.153 0 01-.617-1.498v-.154c0-.595.242-1.124.617-1.498a2.098 2.098 0 011.498-.617h7.975c.088 0 .176.044.22.088a.283.283 0 01.089.22v3.768z"/><path d="M14.512 10.725a.966.966 0 00-.683.286.966.966 0 00-.286.683c0 .264.11.507.286.683a.967.967 0 00.683.286c.265 0 .507-.11.705-.286a.98.98 0 00.287-.705c0-.264-.11-.507-.287-.705-.198-.132-.44-.242-.705-.242z"/></g><defs><clipPath id="clip0"><path transform="translate(.853 .227)" d="M0 0h23v23H0z"/></clipPath></defs></svg>
